apps/www/public/images/launchweek/lwx/day3/branching_mobile.svg

<svg width="349" height="174" viewBox="0 0 349 174" fill="none" xmlns="http://www.w3.org/2000/svg">
<g clip-path="url(#clip0_1006_7390)">
<rect width="349" height="174" fill="#121516"/>
<g clip-path="url(#clip1_1006_7390)">
<mask id="mask0_1006_7390" style="mask-type:luminance" maskUnits="userSpaceOnUse" x="-372" y="0" width="754" height="206">
<path d="M381.525 0H-371.49V205.009H381.525V0Z" fill="white"/>
</mask>
<g mask="url(#mask0_1006_7390)">
<path d="M381.525 0H-371.49V205.009H381.525V0Z" fill="#121516"/>
<path d="M29.8032 37.3457H512.592" stroke="#575E61" stroke-width="0.49281" stroke-linecap="round"/>
<path d="M90.0137 37.3457H113.965C122.796 37.3457 131.165 41.293 136.782 48.1078L148.482 62.3013C154.473 69.5704 163.4 73.7809 172.82 73.7809H204.639" stroke="#575E61" stroke-width="0.49281" stroke-linecap="round"/>
<path d="M89.7681 37.3452H108.314C115.517 37.3452 122.251 40.9228 126.282 46.8926L153.977 87.8983C159.604 96.2289 169 101.221 179.052 101.221H429.982" stroke="#575E61" stroke-width="0.49281" stroke-linecap="round"/>
<path d="M184.388 101.222H201.649C209.549 101.222 216.823 105.518 220.637 112.435L248.968 163.815C254.29 173.468 264.441 179.462 275.465 179.462H524.601" stroke="#575E61" stroke-width="0.49281" stroke-linecap="round"/>
<path d="M184.388 101.222H201.649C209.549 101.222 216.823 105.518 220.637 112.435L226.849 123.702" stroke="url(#paint0_linear_1006_7390)" stroke-width="0.49281" stroke-linecap="round"/>
<path d="M317.023 64.0664H213.197C207.81 64.0664 203.443 68.4335 203.443 73.8206C203.443 79.2076 207.81 83.5747 213.197 83.5747H317.023C322.41 83.5747 326.778 79.2076 326.778 73.8206C326.778 68.4335 322.41 64.0664 317.023 64.0664Z" fill="#191D1E"/>
<path d="M317.023 64.0664H213.197C207.81 64.0664 203.443 68.4335 203.443 73.8206C203.443 79.2076 207.81 83.5747 213.197 83.5747H317.023C322.41 83.5747 326.778 79.2076 326.778 73.8206C326.778 68.4335 322.41 64.0664 317.023 64.0664Z" stroke="#172021" stroke-width="0.49281"/>
<path d="M229.583 76.2844V70.7748H233.048V71.5845H230.543V73.1623H232.672V73.9721H230.543V76.2844H229.583ZM234.864 76.2844V70.7748H238.346V71.5845H235.824V73.012H237.962V73.8218H235.824V75.4663H238.429V76.2844H234.864ZM239.587 76.2844L241.357 70.7748H242.483L244.254 76.2844H243.234L242.809 74.7818H240.997L240.563 76.2844H239.587ZM241.206 74.0222H242.601L242.408 73.3376C242.241 72.7533 242.074 72.1355 241.916 71.5261H241.882C241.732 72.1355 241.565 72.7533 241.398 73.3376L241.206 74.0222ZM246.855 76.2844V71.5845H245.143V70.7748H249.542V71.5845H247.822V76.2844H246.855ZM250.566 76.5932L254.139 70.3574H254.965L251.384 76.5932H250.566ZM256.306 76.2844V70.7748H257.282L258.752 73.8969L259.262 75.0656H259.286C259.245 74.4979 259.153 73.8051 259.153 73.1957V70.7748H260.071V76.2844H259.086L257.625 73.1539L257.116 71.9935H257.091C257.133 72.5779 257.224 73.2374 257.224 73.8468V76.2844H256.306ZM261.979 76.2844V70.7748H265.46V71.5845H262.94V73.012H265.077V73.8218H262.94V75.4663H265.544V76.2844H261.979ZM267.369 76.2844L266.584 70.7665H267.56L267.87 73.9721C267.887 74.4396 267.92 74.8987 267.945 75.3578H267.97C268.07 74.8987 268.187 74.4312 268.287 73.9721L268.763 72.1855H269.381L269.848 73.9721C269.94 74.4228 270.065 74.8903 270.165 75.3578H270.199L270.274 73.9721L270.567 70.7665H271.476L270.733 76.2844H269.706L269.222 74.2476C269.155 73.9136 269.088 73.5547 269.047 73.229H269.022C268.972 73.5547 268.914 73.9136 268.838 74.2476L268.379 76.2844H267.369ZM272.6 73.8718V73.179H276.315V73.8718H272.6ZM277.965 76.2844V70.7748H278.991L279.751 72.9285L280.018 73.755H280.051L280.302 72.9285L281.061 70.7748H282.089V76.2844H281.27V73.8051C281.27 73.2792 281.345 72.244 281.396 71.7264H281.362L280.944 73.0704L280.251 74.7985H279.784L279.082 73.0704L278.665 71.7264H278.641C278.682 72.244 278.766 73.2792 278.766 73.8051V76.2844H277.965ZM283.964 76.2844V70.7748H287.445V71.5845H284.924V73.012H287.062V73.8218H284.924V75.4663H287.529V76.2844H283.964ZM289.103 76.2844V70.7748H290.13L290.89 72.9285L291.157 73.755H291.191L291.441 72.9285L292.201 70.7748H293.227V76.2844H292.409V73.8051C292.409 73.2792 292.485 72.244 292.534 71.7264H292.501L292.084 73.0704L291.391 74.7985H290.924L290.222 73.0704L289.805 71.7264H289.779C289.822 72.244 289.904 73.2792 289.904 73.8051V76.2844H289.103ZM295.012 76.2844V70.7748H296.615C297.733 70.7748 298.551 71.117 298.551 72.1271C298.551 72.6447 298.243 73.1539 297.599 73.3293V73.3627C298.393 73.4962 298.827 73.9136 298.827 74.6649C298.827 75.7668 297.95 76.2844 296.757 76.2844H295.012ZM295.972 73.0622H296.523C297.291 73.0622 297.608 72.7615 297.608 72.244C297.608 71.7348 297.257 71.5261 296.548 71.5261H295.972V73.0622ZM295.972 75.5331H296.656C297.458 75.5331 297.883 75.2326 297.883 74.6064C297.883 74.0138 297.474 73.755 296.656 73.755H295.972V75.5331ZM300.527 76.2844V70.7748H304.008V71.5845H301.487V73.012H303.623V73.8218H301.487V75.4663H304.092V76.2844H300.527ZM305.783 76.2844V70.7748H307.602C308.729 70.7748 309.606 71.1755 309.606 72.4026C309.606 73.2374 309.171 73.7467 308.512 73.9721L309.823 76.2844H308.738L307.552 74.1223H306.743V76.2844H305.783ZM306.743 73.3459H307.502C308.254 73.3459 308.654 73.0287 308.654 72.4026C308.654 71.7599 308.254 71.5428 307.502 71.5428H306.743V73.3459ZM313.017 76.3846C312.249 76.3846 311.523 76.0924 310.988 75.5748L311.548 74.9153C311.957 75.291 312.499 75.5498 313.034 75.5498C313.71 75.5498 314.052 75.266 314.052 74.8236C314.052 74.3644 313.685 74.2224 313.142 74.0054L312.399 73.6798C311.815 73.4544 311.222 73.0204 311.222 72.219C311.222 71.3424 312.007 70.6746 313.117 70.6746C313.793 70.6746 314.42 70.9334 314.87 71.3759L314.37 71.9853C314.002 71.6848 313.626 71.5094 313.117 71.5094C312.549 71.5094 312.199 71.7515 312.199 72.1689C312.199 72.603 312.641 72.7533 313.134 72.9535L313.852 73.2624C314.545 73.5463 315.037 73.9469 315.037 74.7484C315.037 75.6416 314.294 76.3846 313.017 76.3846Z" fill="#EDEDED"/>
<path d="M214.674 69.2988V74.9801" stroke="#575E61" stroke-width="0.69566" stroke-linecap="round" stroke-linejoin="round"/>
<path d="M220.24 72.1394C221.008 72.1394 221.631 71.5035 221.631 70.7191C221.631 69.9347 221.008 69.2988 220.24 69.2988C219.471 69.2988 218.848 69.9347 218.848 70.7191C218.848 71.5035 219.471 72.1394 220.24 72.1394Z" stroke="#575E61" stroke-width="0.69566" stroke-linecap="round" stroke-linejoin="round"/>
<path d="M214.674 77.8211C215.443 77.8211 216.066 77.1852 216.066 76.4007C216.066 75.6164 215.443 74.9805 214.674 74.9805C213.907 74.9805 213.284 75.6164 213.284 76.4007C213.284 77.1852 213.907 77.8211 214.674 77.8211Z" stroke="#575E61" stroke-width="0.69566" stroke-linecap="round" stroke-linejoin="round"/>
<path d="M220.24 72.1401C220.24 73.2702 219.8 74.3539 219.018 75.1531C218.234 75.9521 217.173 76.4011 216.066 76.4011" stroke="#575E61" stroke-width="0.69566" stroke-linecap="round" stroke-linejoin="round"/>
<path d="M89.7681 37.3452H108.314C115.517 37.3452 122.251 40.9228 126.282 46.8926L153.977 87.8983C159.604 96.2289 169 101.221 179.052 101.221H296.478" stroke="url(#paint1_linear_1006_7390)" stroke-width="0.49281" stroke-linecap="round"/>
<path d="M79.4321 37.3457H113.965C122.796 37.3457 131.165 41.293 136.782 48.1078L148.482 62.3013C154.473 69.5704 163.4 73.7809 172.82 73.7809H179.773" stroke="url(#paint2_linear_1006_7390)" stroke-width="0.49281" stroke-linecap="round"/>
<path d="M74.0112 27.8438H34.5864C29.279 27.8438 24.9766 32.1462 24.9766 37.4536C24.9766 42.7609 29.279 47.0634 34.5864 47.0634H74.0112C79.3186 47.0634 83.621 42.7609 83.621 37.4536C83.621 32.1462 79.3186 27.8438 74.0112 27.8438Z" fill="#191D1E"/>
<path d="M74.0112 27.8438H34.5864C29.279 27.8438 24.9766 32.1462 24.9766 37.4536C24.9766 42.7609 29.279 47.0634 34.5864 47.0634H74.0112C79.3186 47.0634 83.621 42.7609 83.621 37.4536C83.621 32.1462 79.3186 27.8438 74.0112 27.8438Z" stroke="#172021" stroke-width="0.49281"/>
<path d="M51.7036 39.9178V34.4082H52.7306L53.4895 36.562L53.7566 37.3884H53.7902L54.0405 36.562L54.8004 34.4082H55.8274V39.9178H55.0094V37.4385C55.0094 36.9126 55.0843 35.8775 55.1345 35.3598H55.101L54.6831 36.7039L53.9912 38.4319H53.523L52.8223 36.7039L52.4044 35.3598H52.3798C52.4211 35.8775 52.5049 36.9126 52.5049 37.4385V39.9178H51.7036ZM57.0023 39.9178L58.7725 34.4082H59.8991L61.6692 39.9178H60.6501L60.2243 38.4152H58.4127L57.9791 39.9178H57.0023ZM58.6217 37.6555H60.0163L59.8241 36.971C59.6566 36.3866 59.49 35.7689 59.3313 35.1595H59.2978C59.148 35.7689 58.9804 36.3866 58.8139 36.971L58.6217 37.6555ZM62.9594 39.9178V39.0998H64.2703V35.218H62.9594V34.4082H66.5579V35.218H65.2382V39.0998H66.5579V39.9178H62.9594ZM68.2985 39.9178V34.4082H69.2753L70.7448 37.5304L71.2544 38.699H71.279C71.2376 38.1314 71.146 37.4385 71.146 36.8291V34.4082H72.0636V39.9178H71.0789L69.6183 36.7874L69.1087 35.627H69.0841C69.1255 36.2113 69.2171 36.8709 69.2171 37.4802V39.9178H68.2985Z" fill="#EDEDED"/>
<mask id="mask1_1006_7390" style="mask-type:luminance" maskUnits="userSpaceOnUse" x="32" y="31" width="12" height="13">
<path d="M43.7458 31.6641H32.6152V43.0265H43.7458V31.6641Z" fill="white"/>
</mask>
<g mask="url(#mask1_1006_7390)">
<path d="M38.1796 42.0796C38.1796 42.0796 41.8905 40.1858 41.8905 37.3453V34.0312L38.1796 32.6108L34.4697 34.0312V37.3453C34.4697 40.1858 38.1796 42.0796 38.1796 42.0796Z" stroke="#575E61" stroke-width="0.69566" stroke-linecap="round" stroke-linejoin="round"/>
</g>
</g>
</g>
</g>
<defs>
<linearGradient id="paint0_linear_1006_7390" x1="226.849" y1="112.463" x2="191.225" y2="101.223" gradientUnits="userSpaceOnUse">
<stop stop-color="white"/>
<stop offset="1" stop-color="white" stop-opacity="0"/>
</linearGradient>
<linearGradient id="paint1_linear_1006_7390" x1="296.478" y1="101.221" x2="135.879" y2="69.2834" gradientUnits="userSpaceOnUse">
<stop stop-color="white"/>
<stop offset="1" stop-color="white" stop-opacity="0"/>
</linearGradient>
<linearGradient id="paint2_linear_1006_7390" x1="177.405" y1="73.7809" x2="0.889974" y2="17.7614" gradientUnits="userSpaceOnUse">
<stop stop-color="white"/>
<stop offset="1" stop-color="#53595C"/>
</linearGradient>
<clipPath id="clip0_1006_7390">
<rect width="349" height="174" fill="white"/>
</clipPath>
<clipPath id="clip1_1006_7390">
<rect width="754" height="205.009" fill="white" transform="translate(-372)"/>
</clipPath>
</defs>
</svg>

<svg xmlns="http://www.w3.org/2000/svg" width="349" height="174" fill="none" viewBox="0 0 349 174"><g clip-path="url(#a)"><path fill="#121516" d="M0 0h349v174H0z"/><g clip-path="url(#b)"><mask id="c" width="754" height="206" x="-372" y="0" maskUnits="userSpaceOnUse" style="mask-type:luminance"><path fill="#fff" d="M381.525 0H-371.49v205.009h753.015z"/></mask><g mask="url(#c)"><path fill="#121516" d="M381.525 0H-371.49v205.009h753.015z"/><path stroke="#575e61" stroke-linecap="round" stroke-width=".493" d="M29.803 37.346h482.789M90.014 37.346h23.951c8.831 0 17.2 3.947 22.817 10.762l11.7 14.193a31.54 31.54 0 0 0 24.338 11.48h31.819"/><path stroke="#575e61" stroke-linecap="round" stroke-width=".493" d="M89.768 37.345h18.546a21.68 21.68 0 0 1 17.968 9.548l27.695 41.005a30.26 30.26 0 0 0 25.075 13.323h250.93M184.388 101.222h17.261c7.9 0 15.174 4.296 18.988 11.213l28.331 51.38a30.26 30.26 0 0 0 26.497 15.647h249.136"/><path stroke="url(#d)" stroke-linecap="round" stroke-width=".493" d="M184.388 101.222h17.261c7.9 0 15.174 4.296 18.988 11.213l6.212 11.267"/><path fill="#191d1e" d="M317.023 64.066H213.197c-5.387 0-9.754 4.367-9.754 9.755 0 5.387 4.367 9.754 9.754 9.754h103.826c5.387 0 9.755-4.367 9.755-9.754 0-5.388-4.368-9.755-9.755-9.755"/><path stroke="#172021" stroke-width=".493" d="M317.023 64.066H213.197c-5.387 0-9.754 4.367-9.754 9.755 0 5.387 4.367 9.754 9.754 9.754h103.826c5.387 0 9.755-4.367 9.755-9.754 0-5.388-4.368-9.755-9.755-9.755Z"/><path fill="#ededed" d="M229.583 76.284v-5.51h3.465v.81h-2.505v1.578h2.129v.81h-2.129v2.312zm5.281 0v-5.51h3.482v.81h-2.522v1.428h2.138v.81h-2.138v1.644h2.605v.818zm4.723 0 1.77-5.51h1.126l1.771 5.51h-1.02l-.425-1.502h-1.812l-.434 1.502zm1.619-2.262h1.395l-.193-.684a77 77 0 0 1-.492-1.812h-.034a51 51 0 0 1-.484 1.812zm5.649 2.262v-4.7h-1.712v-.81h4.399v.81h-1.72v4.7zm3.711.31 3.573-6.237h.826l-3.581 6.236zm5.74-.31v-5.51h.976l1.47 3.123.51 1.169h.024c-.041-.568-.133-1.26-.133-1.87v-2.421h.918v5.51h-.985l-1.461-3.131-.509-1.16h-.025c.042.584.133 1.243.133 1.853v2.437zm5.673 0v-5.51h3.481v.81h-2.52v1.428h2.137v.81h-2.137v1.644h2.604v.818zm5.39 0-.785-5.518h.976l.31 3.206c.017.468.05.927.075 1.386h.025c.1-.46.217-.927.317-1.386l.476-1.786h.618l.467 1.786c.092.45.217.918.317 1.386h.034l.075-1.386.293-3.206h.909l-.743 5.518h-1.027l-.484-2.036a15 15 0 0 1-.175-1.019h-.025c-.05.326-.108.685-.184 1.019l-.459 2.036zm5.231-2.412v-.693h3.715v.693zm5.365 2.412v-5.51h1.026l.76 2.154.267.827h.033l.251-.826.759-2.154h1.028v5.51h-.819v-2.48c0-.526.075-1.561.126-2.079h-.034l-.418 1.344-.693 1.729h-.467l-.702-1.729-.417-1.344h-.024c.041.518.125 1.553.125 2.08v2.478zm5.999 0v-5.51h3.481v.81h-2.521v1.428h2.138v.81h-2.138v1.644h2.605v.818zm5.139 0v-5.51h1.027l.76 2.154.267.827h.034l.25-.826.76-2.154h1.026v5.51h-.818v-2.48c0-.526.076-1.561.125-2.079h-.033l-.417 1.344-.693 1.729h-.467l-.702-1.729-.417-1.344h-.026c.043.518.125 1.553.125 2.08v2.478zm5.909 0v-5.51h1.603c1.118 0 1.936.343 1.936 1.353 0 .518-.308 1.027-.952 1.202v.034c.794.133 1.228.55 1.228 1.302 0 1.102-.877 1.62-2.07 1.62zm.96-3.222h.551c.768 0 1.085-.3 1.085-.818 0-.51-.351-.718-1.06-.718h-.576zm0 2.471h.684c.802 0 1.227-.3 1.227-.927 0-.592-.409-.851-1.227-.851h-.684zm4.555.751v-5.51h3.481v.81h-2.521v1.428h2.136v.81h-2.136v1.644h2.605v.818zm5.256 0v-5.51h1.819c1.127 0 2.004.401 2.004 1.629 0 .834-.435 1.344-1.094 1.57l1.311 2.311h-1.085l-1.186-2.162h-.809v2.162zm.96-2.938h.759c.752 0 1.152-.317 1.152-.943 0-.643-.4-.86-1.152-.86h-.759zm6.274 3.039a2.9 2.9 0 0 1-2.029-.81l.56-.66c.409.376.951.635 1.486.635.676 0 1.018-.284 1.018-.726 0-.46-.367-.602-.91-.819l-.743-.325c-.584-.226-1.177-.66-1.177-1.461 0-.877.785-1.544 1.895-1.544.676 0 1.303.258 1.753.7l-.5.61c-.368-.3-.744-.476-1.253-.476-.568 0-.918.242-.918.66 0 .434.442.584.935.785l.718.308c.693.284 1.185.685 1.185 1.486 0 .894-.743 1.637-2.02 1.637"/><path stroke="#575e61" stroke-linecap="round" stroke-linejoin="round" stroke-width=".696" d="M214.674 69.299v5.681M220.24 72.14c.768 0 1.391-.636 1.391-1.42 0-.785-.623-1.421-1.391-1.421-.769 0-1.392.636-1.392 1.42 0 .785.623 1.42 1.392 1.42M214.674 77.821c.769 0 1.392-.636 1.392-1.42 0-.785-.623-1.42-1.392-1.42-.767 0-1.39.635-1.39 1.42s.623 1.42 1.39 1.42M220.24 72.14a4.3 4.3 0 0 1-1.222 3.013 4.14 4.14 0 0 1-2.952 1.248"/><path stroke="url(#e)" stroke-linecap="round" stroke-width=".493" d="M89.768 37.345h18.546a21.68 21.68 0 0 1 17.968 9.548l27.695 41.005a30.26 30.26 0 0 0 25.075 13.323h117.426"/><path stroke="url(#f)" stroke-linecap="round" stroke-width=".493" d="M79.432 37.346h34.533c8.831 0 17.2 3.947 22.817 10.762l11.7 14.193a31.54 31.54 0 0 0 24.338 11.48h6.953"/><path fill="#191d1e" d="M74.011 27.844H34.586a9.61 9.61 0 0 0-9.61 9.61 9.61 9.61 0 0 0 9.61 9.61h39.425a9.61 9.61 0 0 0 9.61-9.61 9.61 9.61 0 0 0-9.61-9.61"/><path stroke="#172021" stroke-width=".493" d="M74.011 27.844H34.586a9.61 9.61 0 0 0-9.61 9.61 9.61 9.61 0 0 0 9.61 9.61h39.425a9.61 9.61 0 0 0 9.61-9.61 9.61 9.61 0 0 0-9.61-9.61Z"/><path fill="#ededed" d="M51.704 39.918v-5.51h1.027l.758 2.154.268.826h.033l.25-.826.76-2.154h1.027v5.51h-.818v-2.48c0-.525.075-1.56.126-2.078H55.1l-.418 1.344-.692 1.728h-.468l-.7-1.728-.419-1.344h-.024c.041.517.125 1.553.125 2.078v2.48zm5.298 0 1.77-5.51H59.9l1.77 5.51H60.65l-.426-1.503h-1.811l-.434 1.503zm1.62-2.262h1.394l-.192-.685a78 78 0 0 1-.493-1.811h-.033c-.15.609-.318 1.227-.484 1.811zm4.337 2.262V39.1h1.311v-3.882h-1.31v-.81h3.598v.81h-1.32V39.1h1.32v.818zm5.34 0v-5.51h.976l1.47 3.122.51 1.169h.024c-.041-.568-.133-1.26-.133-1.87v-2.42h.918v5.509h-.985l-1.46-3.13-.51-1.161h-.025c.041.584.133 1.244.133 1.853v2.438z"/><mask id="g" width="12" height="13" x="32" y="31" maskUnits="userSpaceOnUse" style="mask-type:luminance"><path fill="#fff" d="M43.746 31.664h-11.13v11.362h11.13z"/></mask><g mask="url(#g)"><path stroke="#575e61" stroke-linecap="round" stroke-linejoin="round" stroke-width=".696" d="M38.18 42.08s3.71-1.894 3.71-4.735v-3.314l-3.71-1.42-3.71 1.42v3.314c0 2.84 3.71 4.735 3.71 4.735"/></g></g></g></g><defs><linearGradient id="d" x1="226.849" x2="191.225" y1="112.463" y2="101.223" gradientUnits="userSpaceOnUse"><stop stop-color="#fff"/><stop offset="1" stop-color="#fff" stop-opacity="0"/></linearGradient><linearGradient id="e" x1="296.478" x2="135.879" y1="101.221" y2="69.283" gradientUnits="userSpaceOnUse"><stop stop-color="#fff"/><stop offset="1" stop-color="#fff" stop-opacity="0"/></linearGradient><linearGradient id="f" x1="177.405" x2=".89" y1="73.781" y2="17.761" gradientUnits="userSpaceOnUse"><stop stop-color="#fff"/><stop offset="1" stop-color="#53595c"/></linearGradient><clipPath id="a"><path fill="#fff" d="M0 0h349v174H0z"/></clipPath><clipPath id="b"><path fill="#fff" d="M-372 0h754v205.009h-754z"/></clipPath></defs></svg>
